X:1
T:Title
%%score { 1 | ( 2 3 ) }
L:1/8
M:3/4
K:Ab
V:1 treble nm="Grand Piano"
V:2 bass 
V:3 bass 
V:1
 z2 z2[Q:1/4=94] [CE][CE] | [CA]2 [CA]2 (3BAB | c4 [DB][CA] | [Fd]3 [Fd] cA |[M:2/4] B4 | %5
[M:1/4] EE |[M:3/4] [CA]>G AB cd | e2 c[Ec] [EB][Ec] | [A=d][Ac] [B,GB][CFA] [B,EG][A,=DF] | %9
[M:2/4] [G,E]4 |[M:1/4] [G,DE][G,DE] |[M:3/4] [CA]2 [CA]2 (3BAB | c4 [DB][CA] | [Fd]3 [Fd] cA | %14
[M:2/4] B4 |[M:1/4] EE |[M:3/4] [CA]>G AB cd | e2 c2 [Af]>[Af] | [Ae]3 [Ac] [GB][Gc] | %19
[M:2/4] [CEA]4 |] %20
V:2
 z2 z2 [A,,A,][A,,A,] | [A,,E,]2 [A,,E,]2 (3[E,-G,D][E,F,C][E,G,D] | [A,E]4 [A,,A,][A,,A,] | %3
 [D,A,]3 [D,A,] [A,E][F,A,C] |[M:2/4] [E,G,E]4 |[M:1/4] [E,G,D][E,G,D] | %6
[M:3/4] z z/ B,/ C[E,G,D] z B, | [A,CE]2 [A,E][A,,A,] [B,,G,][B,,A,] | %8
 [B,,B,][=D,B,] B,,B,, B,,B,, |[M:2/4] E,4 |[M:1/4] E,E, | %11
[M:3/4] [A,,E,]2 [A,,E,]2 (3[E,-G,D][E,F,C][E,G,D] | [A,E]4 [A,,A,][A,,A,] | %13
 [D,A,]3 [D,A,] [A,E][F,A,C] |[M:2/4] [E,G,E]4 |[M:1/4] [E,G,D][E,G,D] | %16
[M:3/4] z z/ B,/ C[E,G,D] z B, | [A,CE]2 [A,E]2 [D,D]>[=D,_C] | [E,C]3 [E,E] [E,D][E,E] | %19
[M:2/4] [A,,A,]4 |] %20
V:3
 x6 | x6 | x6 | x6 |[M:2/4] x4 |[M:1/4] x2 |[M:3/4] [A,,E,]4 [A,E]2 | x6 | x6 |[M:2/4] x4 | %10
[M:1/4] x2 |[M:3/4] x6 | x6 | x6 |[M:2/4] x4 |[M:1/4] x2 |[M:3/4] [A,,E,]4 [A,E]2 | x6 | x6 | %19
[M:2/4] x4 |] %20

